X:576
T:An dro
C:Trad 4, 3
M:4/4
L:1/8
K:G
G2BA G2d2| ddec d3B|\
BcAB G2d2 |ddec d4|\
G2BA G2d2| cdec dcBA|
GBBA G2d2 |ddec d4||\
d2ef g2(3dgd| c2(3BdB A3G||\
B2BG A2AG |BcBG A2AG|
dedc B2B2 |ABcA G3A|\
B2BG A2AG |BcBG A2AG|\
dedc B2B2 |ABcA G4||


